X:3336
T:Knockeen Free
O:england
C:Trad
R:Reel
M:C
K:Gm
L:1/8
Bc |: dedc B2 AB | GBAG F2DF | G2 GF DCDF |1 G2 GA B2 c2 :|2 G2 GA G3 D
|
|: GABc d2 d=e | f2 =ed cAFc | dedc B2AB | GFD=E F2 Bc |
dedc B2 AB | GBAG F2 DF | G2 GF DCDG |1 G2 GA G3 D :|2 G2 GA G4 ||


